apps/allocations/public/meta/icon.svg

<svg width="160" height="160" viewBox="0 0 160 160" fill="none" xmlns="http://www.w3.org/2000/svg">
<rect width="160" height="160" fill="url(#paint0_linear)"/>
<g clip-path="url(#clip0)">
<path d="M51.5937 48.2947L94.1166 36.6878L91.8647 32.136C90.3913 29.1774 86.7979 27.9556 83.8392 29.4289L45.7722 48.2947H51.5937Z" fill="white" fill-opacity="0.6"/>
<path d="M107.317 37.0231C106.79 37.0231 106.262 37.0949 105.735 37.2387L95.7456 39.9697L65.2368 48.2946H99.866H114.959L113.09 41.4431C112.371 38.7719 109.952 37.0231 107.317 37.0231Z" fill="white" fill-opacity="0.8"/>
<path d="M121.199 52.4871H119.834H117.977H116.12H101.95H49.8805H43.0529H37.3033H36.2373H32.6677C30.7752 52.4871 29.0862 53.3615 27.9842 54.739C27.4811 55.3738 27.0978 56.1045 26.8822 56.9071C26.7505 57.4101 26.6666 57.9372 26.6666 58.4762V59.1949V66.0225V125.207C26.6666 128.513 29.3498 131.196 32.6558 131.196H121.187C124.493 131.196 127.176 128.513 127.176 125.207V108.498H91.6369C86.019 108.498 81.4553 103.934 81.4553 98.316V92.8299V90.9733V89.1167V84.9961C81.4553 82.2411 82.5572 79.7378 84.3421 77.9051C85.9232 76.2759 88.0434 75.1739 90.4151 74.8984C90.8104 74.8506 91.2176 74.8266 91.6249 74.8266H122.193H124.05H125.907H127.176V58.4762C127.188 55.1702 124.505 52.4871 121.199 52.4871Z" fill="white"/>
<path d="M131.381 80.5526C130.782 80.0016 130.075 79.5823 129.285 79.3068C128.674 79.1033 128.027 78.9835 127.344 78.9835H127.188H127.069H125.212H118.516H91.6369C88.3307 78.9835 85.6477 81.6665 85.6477 84.9727V87.9551V89.8118V91.6684V98.3044C85.6477 101.61 88.3307 104.294 91.6369 104.294H127.188H127.344C128.027 104.294 128.674 104.174 129.285 103.97C130.075 103.707 130.782 103.275 131.381 102.724C132.579 101.634 133.333 100.053 133.333 98.3045V84.9727C133.333 83.2237 132.579 81.6425 131.381 80.5526ZM104.142 92.8303C104.142 94.4833 102.801 95.8249 101.148 95.8249H99.1592C97.5062 95.8249 96.1647 94.4833 96.1647 92.8303V90.8419C96.1647 89.8836 96.6079 89.0331 97.3146 88.494C97.8296 88.0988 98.4646 87.8473 99.1592 87.8473H99.6623H101.148C102.801 87.8473 104.142 89.1888 104.142 90.8419V92.8303Z" fill="white" fill-opacity="0.9"/>
</g>
<defs>
<linearGradient id="paint0_linear" x1="160" y1="160" x2="0" y2="0" gradientUnits="userSpaceOnUse">
<stop stop-color="#34EDDF"/>
<stop offset="1" stop-color="#35ACB2"/>
</linearGradient>
<clipPath id="clip0">
<rect width="106.667" height="106.667" fill="white" transform="translate(26.6666 26.6666)"/>
</clipPath>
</defs>
</svg>

<svg xmlns="http://www.w3.org/2000/svg" width="56" height="56" fill="none" viewBox="0 0 160 160"><defs/><path fill="url(#prefix__paint0_linear)" d="M0 0h160v160H0z"/><g fill="#fff" clip-path="url(#prefix__clip0)"><path fill-opacity=".6" d="M51.594 48.295l42.523-11.607-2.252-4.552c-1.474-2.959-5.067-4.18-8.026-2.707L45.772 48.295h5.822z"/><path fill-opacity=".8" d="M107.317 37.023a5.99 5.99 0 00-1.582.216l-9.99 2.73-30.508 8.326H114.959l-1.869-6.852a5.979 5.979 0 00-5.773-4.42z"/><path d="M121.199 52.487H32.667a5.995 5.995 0 00-5.786 4.42 6.202 6.202 0 00-.214 1.57v66.73a5.991 5.991 0 005.989 5.989h88.531a5.991 5.991 0 005.989-5.989v-16.709h-35.54c-5.617 0-10.18-4.564-10.18-10.182V84.997c0-2.756 1.101-5.26 2.886-7.092a10.08 10.08 0 016.073-3.007c.395-.047.803-.071 1.21-.071h35.551v-16.35c.012-3.307-2.671-5.99-5.977-5.99z"/><path fill-opacity=".9" d="M131.381 80.553a5.988 5.988 0 00-2.096-1.246 6.11 6.11 0 00-1.941-.323H91.636a5.991 5.991 0 00-5.988 5.989v13.331a5.992 5.992 0 005.989 5.99h35.707c.683 0 1.33-.12 1.941-.324a5.807 5.807 0 002.096-1.246 5.967 5.967 0 001.952-4.42V84.974c0-1.75-.754-3.33-1.952-4.42zM104.142 92.83a2.995 2.995 0 01-2.994 2.995h-1.989a2.996 2.996 0 01-2.994-2.995v-1.988c0-.958.443-1.809 1.15-2.348a3.026 3.026 0 011.844-.647H101.148a2.995 2.995 0 012.994 2.995v1.988z"/></g><defs><linearGradient id="prefix__paint0_linear" x1="160" x2="0" y1="160" y2="0" gradientUnits="userSpaceOnUse"><stop stop-color="#34EDDF"/><stop offset="1" stop-color="#35ACB2"/></linearGradient><clipPath id="prefix__clip0"><path fill="#fff" d="M0 0h106.667v106.667H0z" transform="translate(26.667 26.667)"/></clipPath></defs></svg>
